X: 66
T: No_158_Switchgrass_Dance_Song_(h).krn
N: Derived from No_158_Switchgrass_Dance_Song_(h).krn
%%abc-version 2.0
%%abcx-abcm2ps-target-version 5.9.1 (29 Sep 2008)
%%abc-creator hum2abc beta
%%abcx-conversion-date 2019/03/15 08:38:45
%%humdrum-veritas 519601378
%%humdrum-veritas-data 225017936
%%linebreak <none>
%%barnumbers 0
L: 1/16
M: 2/4
K: G clef=bass
[K:clef=bass][M:2/4]D6C2 | 
CA,3 A,2 z C | 
CA,3A,4 ||  
[M:3/4]A,G,G,D,D,4-D,3D, ||  
[M:2/4]D,4A,4 ||  
[M:3/4]A,G,G,E, G,2D,2 D,2 z2 |]  



